svgs/permission_pilot.svg

<svg xmlns="http://www.w3.org/2000/svg" viewBox="0 0 192 192"><path d="M60.089 48.997a70.227 70.227 0 0 0-4.858 3.193l-9.397-9.515c-4.478-4.475-11.746-4.481-16.233-.016a.12.12 0 0 1-.016.016c-4.441 4.452-4.441 11.646 0 16.097l9.756 9.586a69.413 69.413 0 0 0-13.235 40.635v14.652h139.415v-14.652c.048-14.6-4.226-28.844-12.761-40.706l9.792-9.658c4.457-4.44 4.461-11.641.01-16.087l-.01-.009c-4.432-4.465-11.654-4.502-16.131-.082a3.17 3.17 0 0 0-.082.082l-9.757 9.657a69.834 69.834 0 0 0-5.468-3.554m-64.66 57.648c-6.242.017-11.317-5.016-11.335-11.241-.018-6.226 5.03-11.287 11.272-11.304 6.243-.018 11.318 5.015 11.336 11.241v.063c0 6.208-5.047 11.241-11.273 11.241h-.063.063Zm58.477.452c-6.243.052-11.346-4.953-11.398-11.178-.052-6.226 4.967-11.315 11.21-11.367 6.242-.052 11.345 4.954 11.397 11.179v.125c0 6.208-5.047 11.241-11.272 11.241h.063Zm-98.825 17.285v43.964c0 4.15 3.374 7.515 7.536 7.515h124.342c4.145 0 7.536-3.382 7.536-7.515v-44.34" fill="none" stroke="#000" stroke-width="8" stroke-linecap="round" stroke-linejoin="round"/><path d="m66.423 123.645 29.39 29.685 29.024-29.685M95.459 39.638v-6.315m-5.376 5.043-8.506-3.676m13.882 13.007c18.725 0 44.88-5.655 44.88-11.687 0-6.032-18.996-19.51-44.88-19.51-25.884 0-44.881 13.478-44.881 19.51 0 6.032 26.156 11.687 44.881 11.687Z" fill="none" stroke="#000" stroke-width="8" stroke-linecap="round" stroke-linejoin="round"/><path d="M131.502 42.213v5.484c0 3.346-17.815 11.498-36.043 11.498-18.229 0-36.044-8.152-36.044-11.498v-5.484m41.419-3.847 8.506-3.676m-21.877 88.955 5.389 7.934M103.405 145.292l-4.998-13.713h-5.555l-4.997 13.713M103.797 123.645l-5.39 7.934" fill="none" stroke="#000" stroke-width="8" stroke-linecap="round" stroke-linejoin="round"/><path d="M66.423 141.057a3.227 3.227 0 0 0-3.074 2.227 3.213 3.213 0 0 0 1.174 3.603 3.24 3.24 0 0 0 3.8 0 3.213 3.213 0 0 0 0-5.215 3.24 3.24 0 0 0-1.9-.615Zm0 14.217c-.857 0-1.679.34-2.285.944a3.218 3.218 0 0 0 0 4.558 3.238 3.238 0 0 0 4.57 0 3.22 3.22 0 0 0 0-4.558 3.238 3.238 0 0 0-2.285-.944Zm58.414-14.217a3.227 3.227 0 0 0-3.074 2.227 3.213 3.213 0 0 0 1.174 3.603 3.238 3.238 0 0 0 4.974-1.611c.21-.648.21-1.345 0-1.992a3.227 3.227 0 0 0-3.074-2.227Zm0 14.217c-.857 0-1.68.34-2.285.944a3.218 3.218 0 0 0 0 4.558 3.236 3.236 0 0 0 4.57 0 3.22 3.22 0 0 0 0-4.558 3.238 3.238 0 0 0-2.285-.944Z"/><path d="M144.047 135.941h5.074m-123.015 7.217c10.806 0 19.567-8.736 19.567-19.513" fill="none" stroke="#000" stroke-width="8" stroke-linecap="round" stroke-linejoin="round"/></svg>

<svg
    xmlns="http://www.w3.org/2000/svg"
    viewBox="0 0 192 192"
    id="vector">
    <path
        id="path"
        d="M 60.089 48.997 C 58.437 49.987 56.816 51.052 55.231 52.19 L 45.834 42.675 C 41.356 38.2 34.088 38.194 29.601 42.659 C 29.596 42.665 29.591 42.67 29.585 42.675 C 25.144 47.127 25.144 54.321 29.585 58.772 L 39.341 68.358 C 30.763 80.182 26.133 94.398 26.106 108.993 L 26.106 123.645 L 165.521 123.645 L 165.521 108.993 C 165.569 94.393 161.295 80.149 152.76 68.287 L 162.552 58.629 C 167.009 54.189 167.013 46.988 162.562 42.542 C 162.559 42.539 162.555 42.536 162.552 42.533 C 158.12 38.068 150.898 38.031 146.421 42.451 C 146.393 42.478 146.366 42.505 146.339 42.533 L 136.582 52.19 C 134.803 50.912 132.978 49.727 131.114 48.636 M 66.454 106.284 C 60.212 106.301 55.137 101.268 55.119 95.043 C 55.101 88.817 60.149 83.756 66.391 83.739 C 72.634 83.721 77.709 88.754 77.727 94.98 L 77.727 95.043 C 77.727 101.251 72.68 106.284 66.454 106.284 L 66.391 106.284 L 66.454 106.284 Z M 124.931 106.736 C 118.688 106.788 113.585 101.783 113.533 95.558 C 113.481 89.332 118.5 84.243 124.743 84.191 C 130.985 84.139 136.088 89.145 136.14 95.37 C 136.14 95.412 136.141 95.453 136.14 95.495 C 136.14 101.703 131.093 106.736 124.868 106.736 L 124.931 106.736 Z M 26.106 124.021 L 26.106 167.985 C 26.106 172.135 29.48 175.5 33.642 175.5 L 157.984 175.5 C 162.129 175.5 165.52 172.118 165.52 167.985 L 165.52 123.645"
        fill="none"
        stroke="#000000"
        stroke-width="8"
        stroke-linecap="round"
        stroke-linejoin="round"/>
    <path
        id="path_1"
        d="M 66.423 123.645 L 95.813 153.33 L 124.837 123.645"
        fill="none"
        stroke="#000000"
        stroke-width="8"
        stroke-linecap="round"
        stroke-linejoin="round"/>
    <path
        id="path_2"
        d="M 95.459 39.638 L 95.459 33.323 M 90.083 38.366 L 81.577 34.69 M 95.459 47.697 C 114.184 47.697 140.339 42.042 140.339 36.01 C 140.339 29.978 121.343 16.5 95.459 16.5 C 69.575 16.5 50.578 29.978 50.578 36.01 C 50.578 42.042 76.734 47.697 95.459 47.697 Z"
        fill="none"
        stroke="#000000"
        stroke-width="8"
        stroke-linecap="round"
        stroke-linejoin="round"/>
    <path
        id="path_3"
        d="M 131.502 42.213 L 131.502 47.697 C 131.502 51.043 113.687 59.195 95.459 59.195 C 77.23 59.195 59.415 51.043 59.415 47.697 L 59.415 42.213 M 100.834 38.366 L 109.34 34.69 M 87.463 123.645 L 92.852 131.579"
        fill="none"
        stroke="#000000"
        stroke-width="8"
        stroke-linecap="round"
        stroke-linejoin="round"/>
    <path
        id="path_4"
        d="M 103.405 145.292 L 98.407 131.579 L 92.852 131.579 L 87.855 145.292"
        fill="none"
        stroke="#000000"
        stroke-width="8"
        stroke-linecap="round"
        stroke-linejoin="round"/>
    <path
        id="path_5"
        d="M 103.797 123.645 L 98.407 131.579"
        fill="none"
        stroke="#000000"
        stroke-width="8"
        stroke-linecap="round"
        stroke-linejoin="round"/>
    <path
        id="path_6"
        d="M 66.423 141.057 C 65.741 141.057 65.075 141.272 64.523 141.672 C 63.971 142.072 63.56 142.637 63.349 143.284 C 63.138 143.931 63.138 144.628 63.349 145.276 C 63.56 145.923 63.971 146.487 64.523 146.887 C 65.075 147.287 65.741 147.503 66.423 147.503 C 67.105 147.503 67.771 147.287 68.323 146.887 C 68.875 146.487 69.286 145.923 69.497 145.276 C 69.708 144.628 69.708 143.931 69.497 143.284 C 69.286 142.637 68.875 142.072 68.323 141.672 C 67.771 141.272 67.105 141.057 66.423 141.057 Z M 66.423 155.274 C 65.566 155.274 64.744 155.614 64.138 156.218 C 63.532 156.822 63.191 157.642 63.191 158.497 C 63.191 159.351 63.532 160.172 64.138 160.776 C 64.744 161.38 65.566 161.72 66.423 161.72 C 67.28 161.72 68.102 161.38 68.708 160.776 C 69.314 160.172 69.655 159.351 69.655 158.497 C 69.655 157.642 69.314 156.822 68.708 156.218 C 68.102 155.614 67.28 155.274 66.423 155.274 Z M 124.837 141.057 C 124.154 141.057 123.489 141.272 122.937 141.672 C 122.385 142.072 121.974 142.637 121.763 143.284 C 121.552 143.931 121.552 144.628 121.763 145.276 C 121.974 145.923 122.385 146.487 122.937 146.887 C 123.489 147.287 124.154 147.503 124.837 147.503 C 125.519 147.503 126.184 147.287 126.737 146.887 C 127.289 146.487 127.7 145.923 127.911 145.276 C 128.121 144.628 128.121 143.931 127.911 143.284 C 127.7 142.637 127.289 142.072 126.737 141.672 C 126.184 141.272 125.519 141.057 124.837 141.057 Z M 124.837 155.274 C 123.98 155.274 123.157 155.614 122.552 156.218 C 121.946 156.822 121.605 157.642 121.605 158.497 C 121.605 159.351 121.946 160.172 122.552 160.776 C 123.157 161.38 123.98 161.72 124.837 161.72 C 125.694 161.72 126.516 161.38 127.122 160.776 C 127.728 160.172 128.069 159.351 128.069 158.497 C 128.069 157.642 127.728 156.822 127.122 156.218 C 126.516 155.614 125.694 155.274 124.837 155.274 Z"
        fill="#000000"
        stroke-width="8"/>
    <path
        id="path_7"
        d="M 144.047 135.941 L 149.121 135.941 M 26.106 143.158 C 36.912 143.158 45.673 134.422 45.673 123.645"
        fill="none"
        stroke="#000000"
        stroke-width="8"
        stroke-linecap="round"
        stroke-linejoin="round"/>
</svg>
